icons/4_Outdated/Unity v1.svg

<svg width="1024" height="1024" fill="none" xmlns="http://www.w3.org/2000/svg"><g clip-path="url(#a)"><path d="M512 1024c282.77 0 512-229.23 512-512S794.77 0 512 0 0 229.23 0 512s229.23 512 512 512Z" fill="#56595B"/><path d="m665.4 276-192.8 50.2-28.5 49-57.9-.4L245 512l141.1 137.2 57.9-.4 28.6 48.9L665.4 748 717 560.6 687.7 512l29.3-48.5L665.4 276ZM448.7 383.1l147.5-36.9-84.7 142.6H342.1l106.6-105.7Zm0 257.8L342.1 535.2h169.3l84.7 142.6-147.4-36.9Zm188.7 13.7L552.7 512l84.7-142.6L678.3 512l-40.9 142.6Z" fill="#fff"/></g><defs><clipPath id="a"><path fill="#fff" d="M0 0h1024v1024H0z"/></clipPath></defs></svg>

<svg width="1024" height="1024" viewBox="0 0 1024 1024" fill="none" xmlns="http://www.w3.org/2000/svg">
<g clip-path="url(#clip0_3_719)">
<path d="M512 1024C794.77 1024 1024 794.77 1024 512C1024 229.23 794.77 0 512 0C229.23 0 0 229.23 0 512C0 794.77 229.23 1024 512 1024Z" fill="#56595B"/>
<path d="M665.4 276L472.6 326.2L444.1 375.2L386.2 374.8L245 512L386.1 649.2L444 648.8L472.6 697.7L665.4 748L717 560.6L687.7 512L717 463.5L665.4 276ZM448.7 383.1L596.2 346.2L511.5 488.8H342.1L448.7 383.1ZM448.7 640.9L342.1 535.2H511.4L596.1 677.8L448.7 640.9ZM637.4 654.6L552.7 512L637.4 369.4L678.3 512L637.4 654.6Z" fill="white"/>
</g>
<defs>
<clipPath id="clip0_3_719">
<rect width="1024" height="1024" fill="white"/>
</clipPath>
</defs>
</svg>
